X:72
T:Devil's Dream
M:4/4
L:1/8
K:A
e2||:"A"agae agae |agae fedc |"Bmi"dfBf dfBf |dfBf agfe |"A"agae agae |a
gae fedc
|"D"dfed "A"cBAc |1 "E"BAGB "A"A2 "E"e2 :||2 "E"BAGB "A"A"E"2ed
||"A"ceAe ceAe |ceAe agfe |"Bmi"dfBf dfBf |dfBf agfe |"A"ceAe ceAe |ceAe
agfe
|"D"dfed "A"cBAc |1 "E"BAGB "A"A2 "E"ed :||2 "E"BAGB "A"A2 "E"e2 ||
